2-ui/1-document/09-size-and-scroll/metric-css.svg

<svg xmlns="http://www.w3.org/2000/svg" width="566" height="469" viewBox="0 0 566 469"><defs><style>@import url(https://fonts.googleapis.com/css?family=Open+Sans:bold,italic,bolditalic%7CPT+Mono);@font-face{font-family:&apos;PT Mono&apos;;font-weight:700;font-style:normal;src:local(&apos;PT MonoBold&apos;),url(/font/PTMonoBold.woff2) format(&apos;woff2&apos;),url(/font/PTMonoBold.woff) format(&apos;woff&apos;),url(/font/PTMonoBold.ttf) format(&apos;truetype&apos;)}</style></defs><defs><linearGradient id="linearGradient-1" x1="50%" x2="50%" y1="0%" y2="100%"><stop offset="0%" stop-color="#FFF"/><stop offset="100%" stop-color="#F1F1F1"/></linearGradient><linearGradient id="linearGradient-2" x1="50%" x2="50%" y1="0%" y2="100%"><stop offset="0%" stop-color="#FFF"/><stop offset="100%" stop-color="#F1F1F1"/></linearGradient></defs><g id="dom" fill="none" fill-rule="evenodd" stroke="none" stroke-width="1"><g id="metric-css.svg"><path id="Rectangle-1" stroke="#EE6B47" stroke-width="2" d="M177 184v199h283V184H177z"/><path id="Rectangle-1" fill="#E8C48F" fill-opacity=".88" d="M521 139v290H131V139h390zm-25 25H156v240h340V164z"/><g id="Scrollbar" transform="translate(480 163)"><rect id="Rectangle-19" width="15" height="239" x=".5" y=".5" fill="#F3F2F2" stroke="#E9E9E9" rx="3"/><g id="Rectangle-18-+-Triangle-1"><rect id="Rectangle-18" width="15" height="19" x=".5" y=".5" fill="url(#linearGradient-1)" stroke="#CFCFCF" rx="3"/><path id="Triangle-1" fill="#92979F" d="M8 7l3.2 6H4.8z"/></g><g id="Rectangle-18-+-Triangle-2" transform="matrix(1 0 0 -1 0 240)"><rect id="Rectangle-18" width="15" height="19" x=".5" y=".5" fill="url(#linearGradient-1)" stroke="#CFCFCF" rx="3"/><path id="Triangle-1" fill="#92979F" d="M8 7l3.2 6H4.8z"/></g><g id="Rectangle-18-+-Triangle-3-+-Group" transform="translate(0 50)"><g id="Rectangle-18-+-Triangle-3" fill="url(#linearGradient-2)" stroke="#CFCFCF" transform="matrix(1 0 0 -1 0 51)"><rect id="Rectangle-18" width="15" height="50" x=".5" y=".5" rx="3"/></g><g id="Group" fill="#D8D8D8" stroke="#979797" transform="translate(4 20)"><path id="Rectangle-22" d="M.5.5h7v1h-7z"/><path id="Rectangle-23" d="M.5 3.5h7v1h-7z"/><path id="Rectangle-24" d="M.5 6.5h7v1h-7z"/><path id="Rectangle-25" d="M.5 9.5h7v1h-7z"/></g></g></g><text id="padding:20px" font-family="PTMono-Regular, PT Mono" font-size="12" font-weight="normal"><tspan x="7" y="176" fill="#EE6B47">padding:</tspan> <tspan x="64.6" y="176" fill="#3B86C4">20px</tspan></text><text id="height:200px" font-family="PTMono-Regular, PT Mono" font-size="12" font-weight="normal" transform="rotate(-90 530.5 282)"><tspan x="487.3" y="286" fill="#EE6B47">height:</tspan> <tspan x="537.7" y="286" fill="#3B86C4">200px</tspan></text><path id="Line" stroke="#EE6B47" stroke-dasharray="3,6" stroke-linecap="square" stroke-width="2" d="M461.5 183h88.142"/><path id="Line-3" stroke="#EE6B47" stroke-dasharray="3,6" stroke-linecap="square" stroke-width="2" d="M93.5 184h88.142"/><path id="Line-4" stroke="#EE6B47" stroke-dasharray="3,6" stroke-linecap="square" stroke-width="2" d="M93.5 162h88.142"/><path id="Line-2" stroke="#EE6B47" stroke-dasharray="3,6" stroke-linecap="square" stroke-width="2" d="M461.5 385h88.142"/><path id="Line" fill="#EE6B47" fill-rule="nonzero" d="M543 185.5l7 14h-6V368h6l-7 14-7-14h6V199.5h-6l7-14z"/><text id="padding:20px-2" font-family="PTMono-Regular, PT Mono" font-size="12" font-weight="normal"><tspan x="7" y="396" fill="#EE6B47">padding:</tspan> <tspan x="64.6" y="396" fill="#3B86C4">20px</tspan></text><path id="Line-5" stroke="#EE6B47" stroke-dasharray="3,6" stroke-linecap="square" stroke-width="2" d="M93.5 404h88.142"/><path id="Line-6" stroke="#EE6B47" stroke-dasharray="3,6" stroke-linecap="square" stroke-width="2" d="M93.5 382h88.142"/><text id="border" font-family="PTMono-Regular, PT Mono" font-size="12" font-weight="normal"><tspan x="122.9" y="83" fill="#EE6B47">border</tspan> <tspan x="130.1" y="97" fill="#3B86C4">25px</tspan></text><text id="padding" font-family="PTMono-Regular, PT Mono" font-size="12" font-weight="normal"><tspan x="142.3" y="53" fill="#EE6B47">padding</tspan> <tspan x="153.1" y="67" fill="#3B86C4">20px</tspan></text><text id="content-width:284px" font-family="PTMono-Regular, PT Mono" font-size="12" font-weight="normal"><tspan x="249.1" y="117" fill="#EE6B47">content width:</tspan> <tspan x="349.9" y="117" fill="#3B86C4">284px</tspan></text><path id="Line-21" fill="#EE6B47" fill-rule="nonzero" d="M446.5 118l14 7-14 7v-6H192.679l.001 6-14-7 14-7-.001 6H446.5v-6z"/><path id="Line-14" stroke="#EE6B47" stroke-dasharray="3,6" stroke-linecap="square" stroke-width="2" d="M131.48 101v43"/><path id="Line-13" stroke="#EE6B47" stroke-dasharray="3,6" stroke-linecap="square" stroke-width="2" d="M157.48 101v41"/><text id="border-2" font-family="PTMono-Regular, PT Mono" font-size="12" font-weight="normal"><tspan x="486.9" y="84" fill="#EE6B47">border</tspan> <tspan x="494.1" y="98" fill="#3B86C4">25px</tspan></text><text id="padding-2" font-family="PTMono-Regular, PT Mono" font-size="12" font-weight="normal"><tspan x="449.3" y="24" fill="#EE6B47">padding</tspan> <tspan x="460.1" y="38" fill="#3B86C4">20px</tspan></text><text id="scrollbar" font-family="PTMono-Regular, PT Mono" font-size="12" font-weight="normal"><tspan x="459.1" y="56" fill="#EE6B47">scrollbar</tspan> <tspan x="477.1" y="70" fill="#3B86C4">16px</tspan></text><text id="Introduction" fill="#5A4739" font-family="OpenSans-Bold, Open Sans" font-size="16" font-weight="bold"><tspan x="178" y="200">Introduction</tspan>  <tspan x="178" y="228" font-family="OpenSans-Regular, Open Sans" font-size="14" font-weight="normal">This Ecma Standard is based on several </tspan> <tspan x="178" y="247" font-family="OpenSans-Regular, Open Sans" font-size="14" font-weight="normal">originating technologies, the most well </tspan> <tspan x="178" y="266" font-family="OpenSans-Regular, Open Sans" font-size="14" font-weight="normal">known being JavaScript (Netscape) and </tspan> <tspan x="178" y="285" font-family="OpenSans-Regular, Open Sans" font-size="14" font-weight="normal">JScript (Microsoft). The language was </tspan> <tspan x="178" y="304" font-family="OpenSans-Regular, Open Sans" font-size="14" font-weight="normal">invented by Brendan Eich at Netscape and </tspan> <tspan x="178" y="323" font-family="OpenSans-Regular, Open Sans" font-size="14" font-weight="normal">first appeared in that company’s Navigator </tspan> <tspan x="178" y="342" font-family="OpenSans-Regular, Open Sans" font-size="14" font-weight="normal">2.0 browser. It has appeared in all </tspan> <tspan x="178" y="361" font-family="OpenSans-Regular, Open Sans" font-size="14" font-weight="normal">subsequent browsers from Netscape and in </tspan> <tspan x="178" y="380" font-family="OpenSans-Regular, Open Sans" font-size="14" font-weight="normal">all browsers from Microsoft starting with</tspan> <tspan x="178" y="399" font-family="OpenSans-Regular, Open Sans" font-size="14" font-weight="normal"> </tspan></text><path id="Line-17" stroke="#EE6B47" stroke-dasharray="3,6" stroke-linecap="square" stroke-width="2" d="M481.48 101v43"/><path id="Line-20" stroke="#EE6B47" stroke-dasharray="3,6" stroke-linecap="square" stroke-width="2" d="M495.48 101v43"/><path id="Line-18" stroke="#EE6B47" stroke-dasharray="3,6" stroke-linecap="square" stroke-width="2" d="M520.48 101v41"/><path id="Line-16" stroke="#EE6B47" stroke-dasharray="3,6" stroke-linecap="square" stroke-width="2" d="M176.48 101v41"/><path id="Line-19" stroke="#EE6B47" stroke-dasharray="3,6" stroke-linecap="square" stroke-width="2" d="M463.48 101v41"/></g></g></svg>

<?xml version="1.0" encoding="UTF-8"?>
<svg width="566px" height="469px" viewBox="0 0 566 469" version="1.1" xmlns="http://www.w3.org/2000/svg" xmlns:xlink="http://www.w3.org/1999/xlink">
    <!-- Generator: sketchtool 61.2 (101010) - https://sketch.com -->
    <title>metric-css.svg</title>
    <desc>Created with sketchtool.</desc>
    <defs>
        <linearGradient x1="50%" y1="0%" x2="50%" y2="100%" id="linearGradient-1">
            <stop stop-color="#FFFFFF" offset="0%"></stop>
            <stop stop-color="#F1F1F1" offset="100%"></stop>
        </linearGradient>
        <linearGradient x1="50%" y1="0%" x2="50%" y2="100%" id="linearGradient-2">
            <stop stop-color="#FFFFFF" offset="0%"></stop>
            <stop stop-color="#F1F1F1" offset="100%"></stop>
        </linearGradient>
    </defs>
    <g id="dom" stroke="none" stroke-width="1" fill="none" fill-rule="evenodd">
        <g id="metric-css.svg">
            <path d="M177,184 L177,383 L460,383 L460,184 L177,184 Z" id="Rectangle-1" stroke="#EE6B47" stroke-width="2"></path>
            <path d="M521,139 L521,429 L131,429 L131,139 L521,139 Z M496,164 L156,164 L156,404 L496,404 L496,164 Z" id="Rectangle-1" fill-opacity="0.88" fill="#E8C48F"></path>
            <g id="Scrollbar" transform="translate(480.000000, 163.000000)">
                <rect id="Rectangle-19" stroke="#E9E9E9" fill="#F3F2F2" x="0.5" y="0.5" width="15" height="239" rx="3"></rect>
                <g id="Rectangle-18-+-Triangle-1">
                    <rect id="Rectangle-18" stroke="#CFCFCF" fill="url(#linearGradient-1)" x="0.5" y="0.5" width="15" height="19" rx="3"></rect>
                    <polygon id="Triangle-1" fill="#92979F" points="8 7 11.2 13 4.8 13"></polygon>
                </g>
                <g id="Rectangle-18-+-Triangle-2" transform="translate(8.000000, 230.000000) scale(1, -1) translate(-8.000000, -230.000000) translate(0.000000, 220.000000)">
                    <rect id="Rectangle-18" stroke="#CFCFCF" fill="url(#linearGradient-1)" x="0.5" y="0.5" width="15" height="19" rx="3"></rect>
                    <polygon id="Triangle-1" fill="#92979F" points="8 7 11.2 13 4.8 13"></polygon>
                </g>
                <g id="Rectangle-18-+-Triangle-3-+-Group" transform="translate(0.000000, 50.000000)">
                    <g id="Rectangle-18-+-Triangle-3" transform="translate(8.000000, 25.500000) scale(1, -1) translate(-8.000000, -25.500000) " fill="url(#linearGradient-2)" stroke="#CFCFCF">
                        <rect id="Rectangle-18" x="0.5" y="0.5" width="15" height="50" rx="3"></rect>
                    </g>
                    <g id="Group" transform="translate(4.000000, 20.000000)" fill="#D8D8D8" stroke="#979797">
                        <rect id="Rectangle-22" x="0.5" y="0.5" width="7" height="1"></rect>
                        <rect id="Rectangle-23" x="0.5" y="3.5" width="7" height="1"></rect>
                        <rect id="Rectangle-24" x="0.5" y="6.5" width="7" height="1"></rect>
                        <rect id="Rectangle-25" x="0.5" y="9.5" width="7" height="1"></rect>
                    </g>
                </g>
            </g>
            <text id="padding:20px" font-family="PTMono-Regular, PT Mono" font-size="12" font-weight="normal">
                <tspan x="7" y="176" fill="#EE6B47">padding:</tspan>
                <tspan x="64.6" y="176" fill="#3B86C4">20px</tspan>
            </text>
            <text id="height:200px" transform="translate(530.500000, 282.000000) rotate(-90.000000) translate(-530.500000, -282.000000) " font-family="PTMono-Regular, PT Mono" font-size="12" font-weight="normal">
                <tspan x="487.3" y="286" fill="#EE6B47">height:</tspan>
                <tspan x="537.7" y="286" fill="#3B86C4">200px</tspan>
            </text>
            <line x1="461.5" y1="183" x2="549.64193" y2="183" id="Line" stroke="#EE6B47" stroke-width="2" stroke-linecap="square" stroke-dasharray="3,6"></line>
            <line x1="93.5" y1="184" x2="181.64193" y2="184" id="Line-3" stroke="#EE6B47" stroke-width="2" stroke-linecap="square" stroke-dasharray="3,6"></line>
            <line x1="93.5" y1="162" x2="181.64193" y2="162" id="Line-4" stroke="#EE6B47" stroke-width="2" stroke-linecap="square" stroke-dasharray="3,6"></line>
            <line x1="461.5" y1="385" x2="549.64193" y2="385" id="Line-2" stroke="#EE6B47" stroke-width="2" stroke-linecap="square" stroke-dasharray="3,6"></line>
            <path id="Line" d="M543,185.5 L550,199.5 L544,199.5 L544,368 L550,368 L543,382 L536,368 L542,368 L542,199.5 L536,199.5 L543,185.5 Z" fill="#EE6B47" fill-rule="nonzero"></path>
            <text id="padding:20px-2" font-family="PTMono-Regular, PT Mono" font-size="12" font-weight="normal">
                <tspan x="7" y="396" fill="#EE6B47">padding:</tspan>
                <tspan x="64.6" y="396" fill="#3B86C4">20px</tspan>
            </text>
            <line x1="93.5" y1="404" x2="181.64193" y2="404" id="Line-5" stroke="#EE6B47" stroke-width="2" stroke-linecap="square" stroke-dasharray="3,6"></line>
            <line x1="93.5" y1="382" x2="181.64193" y2="382" id="Line-6" stroke="#EE6B47" stroke-width="2" stroke-linecap="square" stroke-dasharray="3,6"></line>
            <text id="border" font-family="PTMono-Regular, PT Mono" font-size="12" font-weight="normal">
                <tspan x="122.9" y="83" fill="#EE6B47">border</tspan>
                <tspan x="130.1" y="97" fill="#3B86C4">25px</tspan>
            </text>
            <text id="padding" font-family="PTMono-Regular, PT Mono" font-size="12" font-weight="normal">
                <tspan x="142.3" y="53" fill="#EE6B47">padding</tspan>
                <tspan x="153.1" y="67" fill="#3B86C4">20px</tspan>
            </text>
            <text id="content-width:284px" font-family="PTMono-Regular, PT Mono" font-size="12" font-weight="normal">
                <tspan x="249.1" y="117" fill="#EE6B47">content width:</tspan>
                <tspan x="349.9" y="117" fill="#3B86C4">284px</tspan>
            </text>
            <path id="Line-21" d="M446.5,118 L460.5,125 L446.5,132 L446.5,126 L192.679,126 L192.679993,132 L178.679993,125 L192.679993,118 L192.679,124 L446.5,124 L446.5,118 Z" fill="#EE6B47" fill-rule="nonzero"></path>
            <line x1="109.535156" y1="122.945312" x2="152.535156" y2="122.945312" id="Line-14" stroke="#EE6B47" stroke-width="2" stroke-linecap="square" stroke-dasharray="3,6" transform="translate(131.480469, 122.945312) rotate(-270.000000) translate(-131.480469, -122.945312) "></line>
            <line x1="136.535156" y1="121.945312" x2="177.535156" y2="121.945312" id="Line-13" stroke="#EE6B47" stroke-width="2" stroke-linecap="square" stroke-dasharray="3,6" transform="translate(157.480469, 121.945312) rotate(-270.000000) translate(-157.480469, -121.945312) "></line>
            <text id="border-2" font-family="PTMono-Regular, PT Mono" font-size="12" font-weight="normal">
                <tspan x="486.9" y="84" fill="#EE6B47">border</tspan>
                <tspan x="494.1" y="98" fill="#3B86C4">25px</tspan>
            </text>
            <text id="padding-2" font-family="PTMono-Regular, PT Mono" font-size="12" font-weight="normal">
                <tspan x="449.3" y="24" fill="#EE6B47">padding</tspan>
                <tspan x="460.1" y="38" fill="#3B86C4">20px</tspan>
            </text>
            <text id="scrollbar" font-family="PTMono-Regular, PT Mono" font-size="12" font-weight="normal">
                <tspan x="459.1" y="56" fill="#EE6B47">scrollbar</tspan>
                <tspan x="477.1" y="70" fill="#3B86C4">16px</tspan>
            </text>
            <text id="Introduction" font-family="OpenSans-Bold, Open Sans" font-size="16" font-weight="bold" fill="#5A4739">
                <tspan x="178" y="200">Introduction</tspan>
                <tspan x="278.726562" y="200" font-family="Helvetica" font-size="14" font-weight="normal"></tspan>
                <tspan x="178" y="228" font-family="Helvetica" font-size="14" font-weight="normal">This Ecma Standard is based on several </tspan>
                <tspan x="178" y="245" font-family="Helvetica" font-size="14" font-weight="normal">originating technologies, the most well known </tspan>
                <tspan x="178" y="262" font-family="Helvetica" font-size="14" font-weight="normal">being JavaScript (Netscape) and JScript </tspan>
                <tspan x="178" y="279" font-family="Helvetica" font-size="14" font-weight="normal">(Microsoft). The language was invented by </tspan>
                <tspan x="178" y="296" font-family="Helvetica" font-size="14" font-weight="normal">Brendan Eich at Netscape and first appeared </tspan>
                <tspan x="178" y="313" font-family="Helvetica" font-size="14" font-weight="normal">in that company’s Navigator 2.0 browser. It </tspan>
                <tspan x="178" y="330" font-family="Helvetica" font-size="14" font-weight="normal">has appeared in all subsequent browsers </tspan>
                <tspan x="178" y="347" font-family="Helvetica" font-size="14" font-weight="normal">from Netscape and in all browsers from </tspan>
                <tspan x="178" y="364" font-family="Helvetica" font-size="14" font-weight="normal">Microsoft starting with</tspan>
                <tspan x="178" y="381" font-family="Helvetica" font-size="14" font-weight="normal"> </tspan>
            </text>
            <line x1="459.535156" y1="122.945312" x2="502.535156" y2="122.945312" id="Line-17" stroke="#EE6B47" stroke-width="2" stroke-linecap="square" stroke-dasharray="3,6" transform="translate(481.480469, 122.945312) rotate(-270.000000) translate(-481.480469, -122.945312) "></line>
            <line x1="473.535156" y1="122.945312" x2="516.535156" y2="122.945312" id="Line-20" stroke="#EE6B47" stroke-width="2" stroke-linecap="square" stroke-dasharray="3,6" transform="translate(495.480469, 122.945312) rotate(-270.000000) translate(-495.480469, -122.945312) "></line>
            <line x1="499.535156" y1="121.945312" x2="540.535156" y2="121.945312" id="Line-18" stroke="#EE6B47" stroke-width="2" stroke-linecap="square" stroke-dasharray="3,6" transform="translate(520.480469, 121.945312) rotate(-270.000000) translate(-520.480469, -121.945312) "></line>
            <line x1="155.535156" y1="121.945312" x2="196.535156" y2="121.945312" id="Line-16" stroke="#EE6B47" stroke-width="2" stroke-linecap="square" stroke-dasharray="3,6" transform="translate(176.480469, 121.945312) rotate(-270.000000) translate(-176.480469, -121.945312) "></line>
            <line x1="442.535156" y1="121.945312" x2="483.535156" y2="121.945312" id="Line-19" stroke="#EE6B47" stroke-width="2" stroke-linecap="square" stroke-dasharray="3,6" transform="translate(463.480469, 121.945312) rotate(-270.000000) translate(-463.480469, -121.945312) "></line>
        </g>
    </g>
</svg>
